flaticon/interaction/speech-bubble-17.svg

<svg xmlns="http://www.w3.org/2000/svg" width="32" height="32" viewBox="0 0 24 24">
    <path d="M 19.996094 14.140625 L 19.996094 13.195312 L 20.398438 13.195312 C 20.617188 13.195312 20.796875 13.019531 20.796875 12.796875 C 20.796875 12.574219 20.617188 12.398438 20.398438 12.398438 L 13.199219 12.398438 C 12.976562 12.398438 12.800781 12.574219 12.800781 12.796875 C 12.800781 13.019531 12.976562 13.195312 13.199219 13.195312 L 13.597656 13.195312 L 13.597656 14.140625 C 13.597656 15.554688 14.335938 16.839844 15.53125 17.59375 C 14.335938 18.351562 13.597656 19.636719 13.597656 21.050781 L 13.597656 21.996094 L 13.199219 21.996094 C 12.976562 21.996094 12.800781 22.171875 12.800781 22.394531 C 12.800781 22.617188 12.976562 22.792969 13.199219 22.792969 L 20.398438 22.792969 C 20.617188 22.792969 20.796875 22.617188 20.796875 22.394531 C 20.796875 22.171875 20.617188 21.996094 20.398438 21.996094 L 19.996094 21.996094 L 19.996094 21.050781 C 19.996094 19.636719 19.261719 18.351562 18.066406 17.59375 C 19.261719 16.839844 19.996094 15.554688 19.996094 14.140625 Z M 19.199219 21.050781 L 19.199219 21.996094 L 14.398438 21.996094 L 14.398438 21.050781 C 14.398438 19.722656 15.210938 18.53125 16.476562 17.996094 L 17.121094 17.996094 C 18.386719 18.53125 19.199219 19.722656 19.199219 21.050781 Z M 17.121094 17.195312 L 16.476562 17.195312 C 15.210938 16.660156 14.398438 15.46875 14.398438 14.140625 L 14.398438 13.195312 L 19.199219 13.195312 L 19.199219 14.140625 C 19.199219 15.46875 18.386719 16.660156 17.121094 17.195312 Z M 17.121094 17.195312"/>
    <path d="M 16.796875 0 L 7.199219 0 C 3.230469 0 0.00390625 3.230469 0.00390625 7.199219 L 0.00390625 12.796875 C 0.00390625 16.632812 3.015625 19.777344 6.800781 19.984375 L 6.800781 23.320312 C 6.800781 23.597656 6.964844 23.84375 7.21875 23.949219 C 7.304688 23.984375 7.394531 24 7.480469 24 C 7.65625 24 7.828125 23.929688 7.960938 23.800781 L 8.710938 23.050781 C 9.472656 22.289062 10.347656 21.652344 11.304688 21.15625 C 11.503906 21.054688 11.578125 20.8125 11.476562 20.617188 C 11.378906 20.421875 11.136719 20.34375 10.941406 20.445312 C 9.90625 20.976562 8.964844 21.664062 8.144531 22.484375 L 7.601562 23.027344 L 7.601562 19.195312 L 7.199219 19.195312 C 3.671875 19.195312 0.800781 16.324219 0.800781 12.796875 L 0.800781 7.199219 C 0.800781 3.671875 3.671875 0.800781 7.199219 0.800781 L 16.796875 0.800781 C 20.328125 0.800781 23.195312 3.671875 23.195312 7.199219 L 23.195312 12.796875 C 23.195312 13.71875 23 14.617188 22.605469 15.46875 C 22.515625 15.667969 22.601562 15.90625 22.800781 16 C 23.003906 16.089844 23.242188 16.003906 23.332031 15.804688 C 23.773438 14.847656 23.996094 13.835938 23.996094 12.796875 L 23.996094 7.199219 C 23.996094 3.230469 20.769531 0 16.796875 0 Z M 16.796875 0"/>
</svg>

<svg xmlns="http://www.w3.org/2000/svg" width="32" height="32" viewBox="0 0 24 24">
    <path d="M19.996 14.14v-.945h.402a.398.398 0 1 0 0-.797H13.2a.395.395 0 0 0-.398.399c0 .223.176.398.398.398h.399v.946c0 1.414.738 2.699 1.933 3.453-1.195.758-1.933 2.043-1.933 3.457v.945h-.399a.395.395 0 0 0-.398.399c0 .222.176.398.398.398h7.2a.398.398 0 1 0 0-.797h-.403v-.945c0-1.414-.734-2.7-1.93-3.457 1.196-.754 1.93-2.04 1.93-3.453zm-.797 6.91v.946h-4.8v-.945c0-1.328.812-2.52 2.078-3.055h.644c1.266.535 2.078 1.727 2.078 3.055zm-2.078-3.855h-.644c-1.266-.535-2.079-1.726-2.079-3.054v-.946H19.2v.946c0 1.328-.812 2.52-2.078 3.054zm0 0"/>
    <path d="M16.797 0H7.199C3.23 0 .004 3.23.004 7.2v5.597A7.204 7.204 0 0 0 6.8 19.984v3.336a.677.677 0 0 0 1.16.48l.75-.75a10.492 10.492 0 0 1 2.594-1.894.398.398 0 0 0 .172-.539.396.396 0 0 0-.536-.172 11.156 11.156 0 0 0-2.796 2.04l-.543.542v-3.832h-.403a6.407 6.407 0 0 1-6.398-6.398V7.199A6.407 6.407 0 0 1 7.199.801h9.598a6.404 6.404 0 0 1 6.398 6.398v5.598c0 .922-.195 1.82-.59 2.672-.09.199-.003.437.196.531.203.09.441.004.531-.195a7.132 7.132 0 0 0 .664-3.008V7.199C23.996 3.23 20.77 0 16.796 0zm0 0"/>
</svg>
